X:1
T:Telemann’s Chant, 77.77
T:Telemann’s Chant, 77.77
T:Heinrich Christoph Zeuner, 1832
T:Public Domain Courtesy of the Cyber Hymnal™
C:Heinrich Christoph Zeuner, 1832
Z:Public Domain
Z:Courtesy of the Cyber Hymnal™
%%score ( 1 2 ) ( 3 4 )
L:1/8
Q:1/4=96
M:2/4
K:Eb
V:1 treble 
V:2 treble 
V:3 bass 
V:4 bass 
V:1
 E>E E[EG] | [GB]2 [Ac]2 | !fermata![GB]2 z2 | [Ge]3 [Ge] | [Fd][EB] [Gc][F=A] | %5
 !fermata![FB]2 z2 | E>E E[EG] | [GB]2 [Be]2 | !fermata![Ac]2 z2 | [Ac]>[Ac] [Ac][Af] | %10
 [Ge]2 [Fd]2 | !fermata![Ge]2 z2 |] %12
V:2
 E>E E x | x4 | x4 | x4 | x4 | x4 | E>E E x | x4 | x4 | x4 | x4 | x4 |] %12
V:3
 [E,G,]>[E,G,] [E,G,][E,B,] | [E,E]2 [A,E]2 | !fermata![E,E]2 z2 | [E,B,]3 [E,B,] | %4
 [B,,B,][G,B,] [E,E][E,E] | !fermata![B,,D]2 z2 | [E,G,]>[E,G,] [E,G,][E,B,] | [G,E]2 [G,E]2 | %8
 !fermata![A,E]2 z2 | [A,E]>[A,E] [A,E][A,C] | B,2 [B,,B,]2 | !fermata![E,B,]2 z2 |] %12
V:4
 x4 | x4 | x4 | x4 | x4 | x4 | x4 | x4 | x4 | x4 | B,2 x2 | x4 |] %12

